build/img/sprites/TelegramLogo.svg

<svg width="54" height="54" viewBox="0 0 54 54" fill="none" xmlns="http://www.w3.org/2000/svg">
<path d="M48.2788 5.52443C48.0173 5.29866 47.6992 5.14851 47.3587 5.09015C47.0183 5.0318 46.6683 5.06744 46.3466 5.19326L3.598 21.9227C2.99215 22.1583 2.47924 22.5843 2.13646 23.1366C1.79369 23.689 1.63962 24.3377 1.69744 24.9851C1.75526 25.6326 2.02185 26.2437 2.45707 26.7266C2.89228 27.2094 3.47257 27.5378 4.11058 27.6623L15.1869 29.8371V42.1875C15.1847 42.8602 15.3846 43.5181 15.7607 44.0758C16.1368 44.6336 16.6718 45.0655 17.2963 45.3157C17.9198 45.5703 18.6055 45.6314 19.2642 45.4911C19.9229 45.3508 20.5242 45.0155 20.9898 44.5289L26.3307 38.9897L34.8041 46.4062C35.4154 46.9485 36.2039 47.2486 37.021 47.25C37.3791 47.2497 37.735 47.1935 38.0757 47.0833C38.6325 46.9067 39.1333 46.5872 39.5282 46.1568C39.923 45.7264 40.1983 45.2 40.3264 44.6301L48.8884 7.38279C48.965 7.04687 48.9487 6.69644 48.8413 6.36907C48.7339 6.04169 48.5395 5.74972 48.2788 5.52443ZM35.3821 13.1182L16.4842 26.6519L6.02167 24.5995L35.3821 13.1182ZM18.5619 42.1875V32.1722L23.791 36.7579L18.5619 42.1875ZM37.0253 43.875L19.5849 28.582L44.6865 10.5912L37.0253 43.875Z" fill="#78213A"/>
</svg>

<svg width="54" height="54" viewBox="0 0 54 54" fill="none" xmlns="http://www.w3.org/2000/svg"><path d="M48.279 5.524a1.899 1.899 0 00-1.932-.33L3.598 21.922a3 3 0 00.513 5.74l11.076 2.174v12.35a3.358 3.358 0 002.11 3.129 3.356 3.356 0 003.693-.787l5.34-5.54 8.474 7.417a3.35 3.35 0 003.272.677 3.343 3.343 0 002.25-2.453l8.562-37.247a1.898 1.898 0 00-.61-1.859zm-12.897 7.594L16.484 26.652 6.022 24.599l29.36-11.48zm-16.82 29.07V32.172l5.229 4.586-5.23 5.43zm18.463 1.687l-17.44-15.293 25.102-17.99-7.662 33.283z" fill="#78213A"/></svg>
